jasminehou07/tenki-past-sales-model/outputs/model_struggles.csv
genre_id,ranking_group,rows,actual_sales,predicted_sales,sales_mae,sales_total_error,actual_quantity,predicted_quantity,quantity_mae,quantity_total_error,sales_wape,quantity_wape,sales_bias,quantity_bias
100181,Electronics,179,1253815,557537.5389456198,7976.783209008439,1427844.1944125106,180,170.7608178368417,0.9216818645661157,164.9810537573347,1.1387997387274125,0.9165614097629706,-0.5553271105022513,-0.051328789795323834
212377,Electronics,179,472441,34530.248155128764,2768.643886152521,495587.2556213013,49,48.4135932172471,0.3474273015240678,62.18948697280814,1.0489929020159159,1.2691732035266967,-0.9269109832653627,-0.011967485362304136
204586,Electronics,179,4013304,1728138.1508064335,23063.35846462981,4128341.165168736,136,121.89106226963253,0.751594769172725,134.53546368191778,1.0286639549779275,0.9892313506023366,-0.569397645728698,-0.10374218919387847
508599,Jewelry & accessories,179,109080,6822.86546085471,617.8758089584102,110599.76980355542,42,32.26130854386864,0.31848545847780124,57.008897067526426,1.0139326164609042,1.3573546920839625,-0.9374508116900009,-0.2318736060983658
101384,Unknown,105,850000,613.1486668574807,8101.050390808615,850610.2910349045,5,2.3583184364902796,0.06782179792054853,7.121288781657595,1.0007179894528289,1.424257756331519,-0.9992786486272265,-0.528336312701944
202502,"DIY, garden & auto",179,924565,375373.01444607537,4810.31431836645,861046.2629875945,175,151.0469949921163,0.8809644538268422,157.69263723500475,0.9312987869837107,0.9011007842000271,-0.5940004061952645,-0.13687431433076394
208532,Beauty & health,180,2945995,2825756.797507742,14597.143046934922,2627485.7484482857,426,493.43715058455535,1.5144880701768362,272.6078526318305,0.8918839809464326,0.6399245366944378,-0.0408141230695429,0.15830317038628017
567554,Home & living,179,1894475,1487806.645788682,8148.069221753173,1458504.390693818,209,223.55129216285772,0.8613521120030232,154.18202804854116,0.7698725983155322,0.7377130528638333,-0.2146601851232231,0.06962340747778814
207966,Sports & outdoors,180,18466979,15306691.8885797,74812.62829216677,13466273.09259002,424,417.5728881146958,1.559070968596902,280.63277434744236,0.7292082312212528,0.6618697508194396,-0.1711317867107717,-0.015158282748358995
210413,"DIY, garden & auto",179,10592327,5837994.824313836,42629.73844051937,7630723.180852967,316,251.45473492543132,1.080034165122808,193.32611555698264,0.7204010205550647,0.6117915049271603,-0.44884680917480774,-0.2042571679574958
206363,Fashion,180,2073559,1855797.550269071,7668.278855201841,1380290.1939363314,486,447.3724779216209,1.4705325407995649,264.69585734392166,0.6656623679077043,0.5446416817776166,-0.10501820769552686,-0.07948049810366073
564286,Electronics,180,46716779,44510635.395219944,168666.7760959504,30360019.69727107,422,410.96522839345437,1.424673919845417,256.44130557217505,0.6498739927526055,0.6076808188914101,-0.047223795218845364,-0.026148747882809555
110435,Food & drink,180,2670960,2294903.7065114286,9299.078994608202,1673834.2190294764,854,844.066587683939,2.5752189627458266,463.5394132942488,0.6266788791406372,0.5427861982368253,-0.14079443102426523,-0.011631630346675621
101954,Unknown,179,1118436,910976.0454555823,3576.0358068179157,640110.4094204069,949,853.7401724787655,2.249324435868366,402.62907402043754,0.5723263641553088,0.4242666744156349,-0.18549112738182397,-0.10037916493280764
562641,Electronics,179,139199530,110989447.48743647,430980.6143383304,77145529.96656114,1047,891.794007455658,3.6172909255160124,647.4950756673662,0.5542082646871088,0.6184289165877423,-0.20265932300607284,-0.14823877033843558
502221,"Bags, travel & accessories",180,24366121,21402687.22916099,71852.37409449003,12933427.337008206,1220,1233.335699918065,2.358973725161893,424.61527052914073,0.5307954982661461,0.34804530371241044,-0.12162107258841115,0.010930901572184487
501098,Home & living,180,6736679,6788663.841069212,19777.086586512225,3559875.5855722004,993,1060.968263392396,2.479805953502297,446.3650716304134,0.5284318260632873,0.44951165320283326,0.007716686674429965,0.06844739515850555
100487,Jewelry & accessories,180,50011219,38780287.406332254,145552.30562391676,26199415.012305018,9966,8534.002479140256,25.389207170509664,4570.05729069174,0.5238707541262895,0.45856484955767,-0.22456824325093427,-0.1436882922797255
110409,Food & drink,179,5067356,5314056.843405546,14556.903606505706,2605685.7455645213,1274,1333.1301126828419,2.911945269663244,521.2382032697207,0.514210121721174,0.40913516740166456,0.04868433230377848,0.0464129612895148
214104,Food & drink,179,17470268,13364011.09681174,48686.06708590594,8714806.008377163,1789,1566.3835076935768,4.347322525626973,778.1707320872282,0.498836423595629,0.4349752554987301,-0.23504258224248537,-0.12443627294937015
207774,Food & drink,180,81820557,63953309.96608877,223480.13257731328,40226423.86391639,14860,12618.601958816707,35.05303060782691,6309.545509408845,0.49164201930226886,0.4245992940382803,-0.2183711244340616,-0.15083432309443423
564895,Electronics,179,40200962,34796300.57495155,106137.8301163768,18998671.590831447,1111,1063.166332692997,2.6205256211266423,469.074086181669,0.4725924616140143,0.4222088984533474,-0.13444109683366404,-0.04305460603690639
566403,Electronics,180,67065382,64381416.963478506,175277.7329555837,31549991.932005066,1777,1724.766458602177,3.8006279756708006,684.1130356207441,0.47043632633010374,0.3849820121669916,-0.04002012597977142,-0.029394227010592598
506012,Sports & outdoors,179,15155434,14840485.113922857,39701.9605612339,7106650.940460868,861,847.2888794261655,1.9925117314506675,356.65959992966947,0.4689176793261657,0.41423879202052205,-0.020781251535069416,-0.015924646427217744
201925,Sports & outdoors,180,24554595,22009759.0379458,63209.69612706024,11377745.302870844,2241,2157.866761979127,3.100818496416878,558.1473293550381,0.4633652195391878,0.2490617266198296,-0.10363990780765069,-0.03709649175407086
566647,Food & drink,180,7579419,6759147.564487757,19425.10986826891,3496519.776288404,810,778.1656599783365,1.8641152157718932,335.5407388389408,0.4613176519583367,0.4142478257270874,-0.10822352419258559,-0.03930165434773269
215430,Home & living,180,73018569,70149937.87710941,171348.11570555475,30842660.826999854,1921,2059.546810095533,5.036861117103907,906.6350010787032,0.42239475861270104,0.471959917271579,-0.03928632349520013,0.07212223326159976
207802,Food & drink,180,25687902,25527434.29185432,57870.27589187793,10416649.660538027,3381,3335.814814481,6.870403647021279,1236.6726564638302,0.4055079959639377,0.3657712678094736,-0.006246820318205892,-0.01336444410499846
563689,Other,180,53200278,49666238.375856735,119585.6536466487,21525417.656396765,1981,1909.3650200799113,3.6692363222765323,660.4625380097758,0.4046109995214079,0.33339855528004836,-0.0664289691144709,-0.03616101964668786
216158,Home & living,180,22731954,17949254.21433623,49672.18989799479,8940994.181639062,2083,1880.3654345726893,3.8981538873564956,701.6676997241692,0.3933227289497006,0.3368543925704125,-0.21039545415514077,-0.09728015623010595
215913,Home & living,180,38460160,41339028.390769556,83931.31604010638,15107636.88721915,2409,2651.753647312858,4.474763165837594,805.4573698507669,0.3928126374726249,0.334353412142286,0.07485326090087915,0.10076946754373516
205582,Home & living,179,18337198,17935225.01269745,39823.32812321483,7128375.734055455,3277,3247.733926014716,4.89179124942469,875.6306336470195,0.38873854849881945,0.2672049538135549,-0.02192117832302128,-0.008930751902741544
555421,Electronics,180,3936906,3391237.572513411,8363.89103381675,1505500.386087015,1982,1902.4249407275374,3.148138229046545,566.6648812283781,0.38240699322945865,0.28590559093258233,-0.13860336708232027,-0.04014886946138374
201184,Food & drink,180,11740680,11537713.42887198,24465.204619376047,4403736.831487688,3998,3754.4512075315106,6.37194321882879,1146.9497793891821,0.37508362645840687,0.2868808852899405,-0.017287463002826076,-0.06091765694559515
407120,Beauty & health,179,18065708,17402796.334748663,37519.57844055669,6716004.540859647,2216,2219.153077709429,3.801573232454917,680.4816086094302,0.3717542949802824,0.30707653818115077,-0.036694474705964306,0.0014228690024499092
567664,Food & drink,180,307339645,267516735.36383143,617701.1071369204,111186199.28464568,36715,28331.208073003527,85.99248033522697,15478.646460340855,0.36176979147823796,0.4215891722821968,-0.1295729668594124,-0.2283478667301232
214099,Food & drink,180,41689167,36353014.50149085,83308.24477216804,14995484.058990248,16854,14254.582574437383,30.70427501935321,5526.769503483578,0.35969737795409173,0.3279203455253102,-0.12799853972877784,-0.1542314836574473
205272,"Baby, toys & games",180,43327810,38558762.957781814,86139.61776610377,15505131.197898677,2023,1877.6093506472496,3.7066283458632823,667.1931022553908,0.35785633287024377,0.32980380734324805,-0.1100689613026411,-0.07186883309577381
204934,Sports & outdoors,180,27222491,27365111.737235427,52067.43984813407,9372139.172664132,1643,1674.7486983650267,2.7793229855285224,500.278137395134,0.34427926425484473,0.30449064966228484,0.005239077395063769,0.019323614342682115
567251,Food & drink,179,48677306,49635083.59345809,90468.03643287896,16193778.521485334,5797,6125.1477149600305,9.807217370527379,1755.491909324401,0.332676145255149,0.3028276538424014,0.019676059999254966,0.05660647144385553
408789,"Bags, travel & accessories",180,25247399,23957006.461654477,46579.843188881365,8384371.773998645,6303,6142.946951997315,6.049746991171488,1088.9544584108678,0.3320885360903373,0.17276764372693446,-0.05110991981176054,-0.025393153736741964
402018,Home & living,180,59153032,56874681.697898395,107295.7930297871,19313242.74536168,2829,2619.253022788048,5.294417966651124,952.9952339972023,0.3264962435968063,0.3368664665949814,-0.03851620491915959,-0.0741417381449106
554973,Sports & outdoors,180,40426195,38444619.539556034,72600.46918643212,13068084.453557782,1908,1788.3272555325188,3.36459360242128,605.6268484358304,0.32325783946665726,0.3174144907944604,-0.04901711527498361,-0.06272156418631088
200181,Sports & outdoors,180,16420559,14523192.997015271,29268.301707050196,5268294.307269035,2217,2026.1105851857576,3.7399641667577272,673.1935500163909,0.320835259461571,0.3036506765973797,-0.11554819802326637,-0.08610257772406062
506539,Food & drink,180,19040108,18019890.15003156,33229.78637895181,5981361.548211326,5687,5621.89377396262,8.175300273333622,1471.554049200052,0.31414535822020156,0.2587575257956835,-0.05358256633672671,-0.011448254974042572
508456,Home & living,180,21843376,20238103.835504606,37880.86742582894,6818556.136649209,4228,3905.7023772012485,5.95266750426739,1071.4801507681302,0.31215669851808664,0.2534248227928406,-0.07349011272320696,-0.07622933367993176
555003,Other,168,7211164,6867753.289734885,13165.379480282008,2211783.7526873774,3051,3003.832700034807,5.386643957364781,904.9561848372831,0.30671660673469325,0.2966096967673822,-0.04762209128305984,-0.015459619785379481
502280,"Bags, travel & accessories",180,60630347,58253390.963014096,102837.27552864829,18510709.595156692,3525,3738.755179133408,4.466589159009329,803.9860486216792,0.30530436507573827,0.2280811485451572,-0.03920406454190183,0.06063976713004485
210022,Electronics,180,105742314,110812592.584453,178417.73008161326,32115191.414690387,5407,5798.870518892116,9.200040509129357,1656.0072916432841,0.30371182736449653,0.3062709990092998,0.047949381781573285,0.0724746659685807
509417,Beauty & health,180,39515839,38334079.552877575,65671.44936447813,11820860.885606064,4069,4100.8645800511495,6.383920509797513,1149.1056917635524,0.2991423486062402,0.2824049377644513,-0.029905968771722774,0.007831059240882147
558873,Fashion,180,179779262,186476900.98981875,296252.1001373237,53325378.02471827,7581,7934.6922078885655,7.766884535020507,1398.0392163036913,0.29661584674164626,0.18441356236692935,0.037254791878157514,0.04665508612169443
567434,Services,180,53065911,46225063.821080066,85299.42162307123,15353895.892152822,4869,4248.147516227897,8.383116948714992,1508.9610507686984,0.289336329157768,0.3099119019857668,-0.12891227249297452,-0.12751129262109331
507515,Pet supplies,180,45087555,44243494.22763989,70685.25465614421,12723345.838105958,3811,3637.0748134443247,5.104483951595619,918.8071112872115,0.2821919671205493,0.24109344300372906,-0.018720482234179894,-0.04563767687107722
511293,Food & drink,180,200463482,193541475.67855006,312086.223608391,56175520.24951038,28813,27289.236819626523,41.500914582662354,7470.164624879224,0.2802281976201051,0.25926368739385774,-0.03453001141349992,-0.05288457225465854
402279,Home & living,180,29616934,31586868.64630636,46008.717127010495,8281569.082861889,5721,6198.881881460662,7.146385100791849,1286.3493181425329,0.2796227686114265,0.22484693552570056,0.06651379397699837,0.08353118011897606
567665,Food & drink,180,113541328,116269818.77523242,175791.17847218405,31642412.12499313,10927,10677.071414477396,13.644708687833564,2456.0475638100415,0.27868629583928356,0.22476869806992236,0.024030816120385868,-0.022872571201849035
205611,Home & living,180,72377978,72165712.85772896,111960.7797078401,20152940.34741122,8125,7872.9806742350065,12.54091597144416,2257.364874859949,0.2784402231768787,0.277829523059686,-0.002932731034169563,-0.031017763171076122
207288,"Bags, travel & accessories",180,21208707,20366618.826884244,32719.73346505341,5889552.023709614,7666,7510.180908751397,7.303278791459984,1314.5901824627972,0.2776950062872581,0.17148319625134323,-0.03970483316666859,-0.020325996771276205
201632,"Baby, toys & games",180,62080609,58780523.52676957,94836.03120348381,17070485.616627086,8658,8578.413512372023,10.492246561363372,1888.6043810454069,0.27497290847496497,0.21813402414476862,-0.053158071842214515,-0.009192248513279912
551736,Home & living,180,30710451,29546909.184843063,46734.116035433166,8412140.88637797,9642,9063.953175796507,11.22084467508689,2019.7520415156405,0.27391785572859123,0.20947438721381875,-0.03788748706936725,-0.059950925555226416
304080,Fashion,180,35648586,33928249.314522274,54035.89291749669,9726460.725149404,4641,4607.47037696779,6.935313028635403,1248.3563451543725,0.2728428197726946,0.2689843450020195,-0.0482582025968078,-0.007224654822712801
567623,Beauty & health,180,20484415,19759187.354284935,30872.388242340465,5557029.883621284,3817,3514.603864394074,5.994339263249352,1078.9810673848833,0.2712808680951486,0.2826777750549865,-0.03540387390682454,-0.07922350945924175
301577,Fashion,180,148287320,146373404.09971777,223029.16011454468,40145248.82061804,7901,8142.308440619603,8.066791641503897,1452.0224954707016,0.2707261067272511,0.18377705296427055,-0.012906807542831269,0.030541506216884326
551732,Home & living,180,34267034,32256478.8562518,51434.900971923875,9258282.174946297,8101,7526.885382479639,10.7942717258071,1942.9689106452781,0.2701804356614668,0.2398430947593233,-0.05867315927454362,-0.07086959850887066
101535,Food & drink,180,27091211,26832615.680901993,40192.40015451077,7234632.027811938,5398,5494.619750636317,8.667401071207093,1560.1321928172767,0.267047199470409,0.2890204136378801,-0.009545358422626694,0.017899175738480343
110632,Food & drink,180,173032726,158422307.968179,256240.82652738906,46123348.77493003,22601,21152.154309775855,32.41126695289439,5834.02805152099,0.2665585282111895,0.25813141239418563,-0.08443731061499321,-0.06410537986036657
214781,Food & drink,180,34864103,33361502.21275512,51627.89603832963,9293021.286899334,3288,3168.4869672261148,4.461876950384243,803.1378510691637,0.2665498460378956,0.24426333669986733,-0.04309879382942618,-0.03634824597745902
206471,Fashion,180,125258109,111763403.76085335,184773.55947780702,33259240.706005264,25913,22723.233171137043,37.82219672090643,6807.995409763158,0.2655256491697896,0.26272509588867204,-0.10773518255130811,-0.12309523516624696
564647,Food & drink,180,51350125,47056886.446776055,74046.00315787131,13328280.568416836,5933,5444.656460742244,7.53775085010777,1356.7951530193986,0.25955692548785103,0.2286861879351759,-0.08360716849713501,-0.08230971502743228
401534,Home & living,180,24486801,24821100.91285344,34617.25322276677,6231105.580098018,7914,7984.910522095814,7.476513366240077,1345.772405923214,0.25446793070675167,0.170049583765885,0.01365224934255146,0.00896013673184402
509434,Electronics,180,67156730,63896019.08273495,94160.58539345626,16948905.370822128,19694,19252.227156076224,22.809058697862362,4105.630565615225,0.2523783598579342,0.20847113667184042,-0.048553747588142696,-0.02243184949343842
204964,Sports & outdoors,180,32097101,31443483.53652009,44737.16004080748,8052688.807345347,5565,5840.555329856598,7.016167440536955,1262.9101392966518,0.25088523749684893,0.22693803042168045,-0.02036375383184637,0.04951578254386312
216424,Beauty & health,180,61587384,58903589.70933633,85460.68152984291,15382922.675371725,10743,10105.26411678399,13.720302218191698,2469.6543992745055,0.249773925701597,0.22988498550446854,-0.04357701393297801,-0.0593629231328316
206440,Fashion,180,233751553,212543238.0706577,323695.7947675356,58265243.05815641,41537,37700.764481425795,56.81775689104832,10227.196240388697,0.24926141585102712,0.24621894312031917,-0.09073015625843692,-0.09235706764027747
401131,"Baby, toys & games",180,50961356,49322847.39622958,69958.71018015037,12592567.832427068,15992,15255.099528277955,20.680449053922548,3722.4808297060586,0.24710032897136935,0.23277143757541638,-0.03215198205813872,-0.04607931914219891
567645,Food & drink,180,50394346,49606022.7262796,68665.7374868993,12359832.747641874,21530,21601.909613676664,28.182228677551787,5072.801161959322,0.245262290885606,0.23561547431302005,-0.015643089677568164,0.003339972767146487
566061,Food & drink,180,39074189,40325750.40627515,51668.01993769748,9300243.588785546,7207,7638.047251797646,9.562643689529732,1721.2758641153519,0.2380150126413512,0.2388338926204179,0.03203038727880323,0.059809525710787556
502835,Electronics,180,125801048,123893920.87775734,164938.0365912144,29688846.58641859,16967,17367.826275765423,13.315652441111045,2396.817439399988,0.23599840429325034,0.141263478481758,-0.01515986673054313,0.023623874330489944
563339,Food & drink,180,314215168,315883970.8294359,408276.2821199569,73489730.78159225,41091,40545.71494285712,48.000382791740684,8640.068902513323,0.2338834603350283,0.21026669836492962,0.005311019324935596,-0.013270182208826238
101020,Beauty & health,180,36304150,34912268.65541524,46608.45181657043,8389521.326982677,8287,7623.433823629436,11.23680163965725,2022.624295138305,0.23108987063414727,0.24407195548911606,-0.03833945553290087,-0.08007314786660599
558754,Beauty & health,180,123625758,119179148.21832635,157593.42397394901,28366816.315310825,9069,8616.981989792059,10.530869089951004,1895.5564361911806,0.22945716794157756,0.20901493397190216,-0.035968311568804735,-0.049842100585284065
551228,Home & living,180,190195613,186056859.9298114,238959.7620458987,43012757.16826177,21209,21156.166418521552,26.535438141378634,4776.378865448154,0.2261501014130214,0.22520528386289565,-0.02176050753698831,-0.0024910925304563033
565724,Beauty & health,180,223005508,203470494.93350857,276060.53660177405,49690896.588319324,58877,50718.074783767624,79.8429282847481,14371.727091254657,0.22282362903932992,0.24409747594569453,-0.0875987918042429,-0.13857576330710422
304763,Beauty & health,180,29259108,27736040.630398836,36131.16279597717,6503609.303275892,7641,7386.37301806976,9.174083235415504,1651.3349823747906,0.22227640375352153,0.2161150349921202,-0.0520544703413776,-0.03332377724515635
205761,Beauty & health,180,29626429,31244023.72645882,35733.034836654195,6431946.270597755,10579,11185.580780647235,10.488566728124777,1887.9420110624599,0.21710163822301212,0.178461292283057,0.054599719947983655,0.05733819648806455
506536,Food & drink,180,114524739,111101517.44147165,137693.52664290357,24784834.79572264,33450,30094.73817316413,41.81150539448242,7526.070971006835,0.2164146804623815,0.22499464786268564,-0.029890673302720636,-0.10030678107132648
563342,Food & drink,180,715384401,708333338.626179,860060.5308973021,154810895.56151438,45616,45783.195530128774,48.18280181803774,8672.904327246793,0.21640239197990896,0.19012855855942637,-0.009856326702070513,0.003665282579112031
567538,Beauty & health,180,51080176,49622628.61487995,59627.11854781027,10732881.33860585,8003,7769.59228158103,8.0511994145996,1449.215894627928,0.2101183312016358,0.1810840802983791,-0.028534502017378505,-0.029165027916902415
110365,Jewelry & accessories,180,17474855,17759576.599924672,20133.135882597955,3623964.458867632,11168,11060.877374208427,10.710362035467286,1927.8651663841115,0.20738166118503598,0.17262402994127074,0.016293216734826834,-0.009591925661852903
201486,Beauty & health,180,123703204,114908152.72696267,137228.78638193253,24701181.548747856,15741,15310.632800312818,14.834621601320173,2670.231888237631,0.19968101674026048,0.16963546713916722,-0.0710980070737483,-0.027340524724425493
510003,Beauty & health,180,55892024,54297180.794226795,61743.77831510405,11113880.096718729,9217,8942.935086315192,9.452504498693921,1701.4508097649057,0.1988455472057825,0.1845991981951726,-0.028534361285130854,-0.029734719939764332
567662,Food & drink,180,148159961,149552822.06941792,162697.2621947375,29285507.19505275,16268,16157.575552291086,17.42439212997014,3136.390583394625,0.19766141268795792,0.1927950936436332,0.009401062608392045,-0.00678783179917102
201351,Food & drink,180,95601166,91817942.12320988,101703.65359324931,18306657.646784876,21967,20423.898198366056,24.124999871465832,4342.49997686385,0.19148989926320434,0.1976828869150931,-0.03957298885653886,-0.07024636052414732
507843,Beauty & health,180,190857179,187702548.62418753,202356.5974089119,36424187.533604145,18056,18233.384747811648,16.57625468156028,2983.7258426808503,0.1908452578228883,0.16524844055609494,-0.016528748839007366,0.009824144207556916
100992,Beauty & health,180,201906829,187376195.1660354,211863.2234762215,38135380.22571987,29646,29211.538234735217,25.868797834459695,4656.383610202745,0.1888761287302465,0.15706616778664054,-0.0719670251171375,-0.014654987696983843
206361,Fashion,180,99797466,98715943.23434338,101818.24210758903,18327283.579366025,9559,9537.105632161645,8.82989340523525,1589.3808129423448,0.1836447789101782,0.1662706154349142,-0.01083717662386959,-0.002290445427173848
558846,Fashion,180,98278329,99642363.59505521,96406.1265980176,17353102.787643168,15464,15601.815744419253,14.160542025025261,2548.897564504547,0.17657099957044617,0.16482783008953356,0.013879301865777629,0.00891203727491289
551180,Fashion,180,97853461,92711032.65533794,88030.55386223519,15845499.695202334,25082,23380.20042225689,22.864040911335028,4115.527364040305,0.16193090702435486,0.16408290264094988,-0.05255233991838117,-0.06784943695650704
216173,Home & living,180,67565771,68677851.6594701,54577.317577443995,9823917.16393992,29064,28344.3705870105,21.97228192454872,3955.01074641877,0.14539784003855916,0.13607936782338184,0.01645923139795291,-0.02476016422342071
560271,"Bags, travel & accessories",180,139624642,145173954.28585288,92852.02841389974,16713365.114501953,67464,76787.06484166876,67.59791395227741,12167.624511409933,0.11970211615297788,0.18035729442976894,0.039744505026934135,0.1381931821663222
